X: 41623
T: Up Leitrim
R: jig
M: 6/8
K: Dmajor
f2 e dAA|BAB dBA|f2 e dAA|Bdf e2 d|
f2 e dAA|BAB dBA|f2 e dAA|Bdf e2 d||
faa gaa|faa afd|faa gaa|afd e2 d|
faa gaa|faa afd|f2 e dAA|Bdf e2 d||

